X:1     %Music
T:Sir William Gower
T:Brown Robyn's Confession
B:Cecil Sharp's Collection of English Folk Songs, Vol 1, p 63, No 13, ed Maud Karpeles , Oxford University Press, 1974
S:Mrs Susan Williams (73) at Haselbury Plucknett, Somerset, 23 August 1905
Z:Cecil Sharp
F:http://www.folkinfo.org/songs
M:3/2     %Meter
L:1/8     %
K:G
(DE) |F2 F2 A4 G2 (FE) | D2 D2 D6
w:A_ gay young sail-or both_ stout and strong 
DE |(FG)(AB) c4 d2 d2 | G2 G2 A6
w:To a good--ly_ ves-sel I do be-long,
 D2 |(FG)(AB) c4 d2 d2 | G2 G2 A6 
w: Well carved_ and_ an-chored so fine and rare
(DE) |(FG) A2 A4 (GF) E2 | D2 D2 D6  |]
w:And_ gal--lant sail-ors_ are load-ed there.